assets/icons/svg/heart-3-line.svg

<svg xmlns="http://www.w3.org/2000/svg" viewBox="0 0 24 24" width="240" height="240"><path fill="none" d="M0 0H24V24H0z"/><path d="M16.5 3C19.538 3 22 5.5 22 9c0 7-7.5 11-10 12.5C9.5 20 2 16 2 9c0-3.5 2.5-6 5.5-6C9.36 3 11 4 12 5c1-1 2.64-2 4.5-2zm-3.566 15.604c.881-.556 1.676-1.109 2.42-1.701C18.335 14.533 20 11.943 20 9c0-2.36-1.537-4-3.5-4-1.076 0-2.24.57-3.086 1.414L12 7.828l-1.414-1.414C9.74 5.57 8.576 5 7.5 5 5.56 5 4 6.656 4 9c0 2.944 1.666 5.533 4.645 7.903.745.592 1.54 1.145 2.421 1.7.299.189.595.37.934.572.339-.202.635-.383.934-.571z" fill="#000"/></svg>

<svg width="24" height="24" viewBox="0 0 24 24" fill="none" xmlns="http://www.w3.org/2000/svg">
<path d="M16.5 3C19.538 3 22 5.5 22 9C22 16 14.5 20 12 21.5C9.5 20 2 16 2 9C2 5.5 4.5 3 7.5 3C9.36 3 11 4 12 5C13 4 14.64 3 16.5 3ZM12.934 18.604C13.815 18.048 14.61 17.495 15.354 16.903C18.335 14.533 20 11.943 20 9C20 6.64 18.463 5 16.5 5C15.424 5 14.26 5.57 13.414 6.414L12 7.828L10.586 6.414C9.74 5.57 8.576 5 7.5 5C5.56 5 4 6.656 4 9C4 11.944 5.666 14.533 8.645 16.903C9.39 17.495 10.185 18.048 11.066 18.603C11.365 18.792 11.661 18.973 12 19.175C12.339 18.973 12.635 18.792 12.934 18.604Z" fill="black"/>
</svg>
